public/images/categories-sneaker.svg

<svg fill="none" height="76" viewBox="0 0 76 76" width="76" xmlns="http://www.w3.org/2000/svg"><circle cx="38" cy="38" fill="#e4e4e4" r="38"/><g fill="#000"><path d="m26.8612 52.1845h-4.7496c-.4315 0-.7812.3498-.7812.7813 0 .4314.3497.7812.7812.7812h4.7495c.4315 0 .7812-.3498.7812-.7812 0-.4315-.3497-.7813-.7811-.7813z"/><path d="m31.1001 52.6672c-.1278-.3121-.4554-.5096-.7912-.4793-.323.0293-.6002.2629-.6846.5757-.0837.3107.0391.6498.2999.8373.264.1898.6318.1923.899.0074.2986-.2067.4167-.6056.2769-.9411z"/><path d="m30.3929 48.271h-9.641c-.4315 0-.7813.3498-.7813.7812 0 .4315.3498.7813.7813.7813h9.641c.4315 0 .7813-.3498.7813-.7813 0-.4314-.3498-.7812-.7813-.7812z"/><path d="m27.3893 45.1387c0-.4315-.3498-.7813-.7813-.7813h-6.8268c-.4314 0-.7812.3498-.7812.7813s.3498.7812.7812.7812h6.8268c.4315 0 .7813-.3497.7813-.7812z"/><path d="m58.0659 48.1743c-.1321-4.4291-3.7762-7.9914-8.2367-7.9914h-3.964l-2.255-13.5418c-.1182-.8143-.551-1.5268-1.2197-2.0072-.6713-.4822-1.4885-.6645-2.301-.5134-1.6564.308-2.1122.374-2.2365.3858-.2301.0221-.4387.1449-.5696.3355-.1308.1905-.1706.4293-.1085.652l.1942.6964c-1.4191-.1699-2.7185-.9424-3.5435-2.1513l-.4773-.6984c-.1256-.1838-.3236-.3053-.5443-.3339-.2206-.0289-.4431.0381-.6116.1836l-3.7358 3.2286c-.4186.3143-.8231.7239-1.2026 1.2178-.0002.0003-.0004.0006-.0006.0008-1.0598 1.3762-1.9767 3.4382-2.5039 5.6058-.5783.0538-1.1374.3219-1.5453.7945l-.9046 1.0482c-.4067.4713-.6051 1.0727-.5585 1.6935s.3324 1.1858.8049 1.5912l15.3883 13.2025c.2609.2194.5328.4234.8143.6114h-4.8238c-.4315 0-.7813.3498-.7813.7813s.3498.7812.7813.7812h22.7495c1.2824 0 2.3258-1.0433 2.3258-2.3257v-1.3846c0-.761-.3674-1.4379-.9342-1.8624zm-15.1497-16.1888h-2.3099l-.575-2.0628h2.5414zm.2601 1.5625.3606 2.1653h-1.8917l-.6035-2.1653zm.6208 3.7278.5528 3.32c-.2407.071-.4994.0678-.7519-.0138-.4204-.1359-.7274-.4586-.8442-.8914l-.6731-2.4148zm-3.4219-11.6192c.3898-.0725.7817.015 1.1036.2463.3221.2313.5302.575.5859.9677.0009.0062.0018.0124.0029.0185l.2449 1.4711h-2.7166l-.6799-2.4395c.3397-.0589.8085-.143 1.4592-.2641zm-10.9182 1.9626 3.095-2.6747c1.2047 1.7484 3.1688 2.7943 5.262 2.8421l.1598.5735h-.0463c-.4315 0-.7812.3497-.7812.7812s.3497.7813.7812.7813h.4818l.5749 2.0628h-.5077c-.4315 0-.7813.3498-.7813.7812 0 .4315.3498.7813.7813.7813h.9433l.6035 2.1653h-.9218c-.4315 0-.7813.3498-.7813.7813 0 .4314.3498.7812.7813.7812h1.3573l.7882 2.8279c.2516.9331.9508 1.6677 1.8704 1.965.1293.0418.26.074.3914.0968l-.7612 1.0987c-.2457.3547-.1573.8415.1973 1.0872.1357.0939.2907.1391.4442.1391.2476 0 .4911-.1174.6429-.3364l1.6686-2.4087h4.1286c3.4416 0 6.2834 2.617 6.6401 5.9656h-12.5733c-.7532 0-1.4862-.2655-2.0648-.7477l-11.107-9.5291c1.3182-1.0528 2.104-2.686 2.104-4.4723 0-1.3702-.4944-2.6937-1.3923-3.727-.5792-.6664-1.3008-1.1842-2.1024-1.5194.0259-.0204.0518-.0402.0778-.0595.0157-.0116.031-.0239.0457-.0367zm-1.2464 1.3603c1.7704.4761 3.0551 2.113 3.0551 3.9823 0 1.4104-.6632 2.6849-1.7576 3.4289l-3.0288-2.5985c-.0694-.0595-.1414-.1142-.2155-.1642.4272-1.7685 1.1297-3.4448 1.9468-4.6485zm29.227 22.4418c0 .4208-.3424.7632-.7633.7632h-12.7783c-1.8104 0-3.5704-.6418-4.95-1.8022l-15.3826-13.1975c-.1551-.1331-.2489-.3185-.2642-.5222-.0153-.2038.0499-.4012.1833-.5558l.9046-1.0482c.1506-.1745.3639-.2641.5785-.2641.176 0 .3528.0603.4964.1835l15.3558 13.1746c.0025.0022.0051.0044.0077.0065.8597.7186 1.9501 1.1143 3.0705 1.1143h12.7783c.4209 0 .7633.3425.7633.7633z"/></g></svg>

<svg width="76" height="76" viewBox="0 0 76 76" fill="none" xmlns="http://www.w3.org/2000/svg">
<circle cx="38" cy="38" r="38" fill="#E4E4E4"/>
<path d="M26.8612 52.1845H22.1116C21.6801 52.1845 21.3304 52.5343 21.3304 52.9658C21.3304 53.3972 21.6801 53.747 22.1116 53.747H26.8611C27.2926 53.747 27.6423 53.3972 27.6423 52.9658C27.6423 52.5343 27.2926 52.1845 26.8612 52.1845Z" fill="black"/>
<path d="M31.1001 52.6672C30.9723 52.3551 30.6447 52.1576 30.3089 52.1879C29.9859 52.2172 29.7087 52.4508 29.6243 52.7636C29.5406 53.0743 29.6634 53.4134 29.9242 53.6009C30.1882 53.7907 30.556 53.7932 30.8232 53.6083C31.1218 53.4016 31.2399 53.0027 31.1001 52.6672Z" fill="black"/>
<path d="M30.3929 48.271H20.7519C20.3204 48.271 19.9706 48.6208 19.9706 49.0522C19.9706 49.4837 20.3204 49.8335 20.7519 49.8335H30.3929C30.8244 49.8335 31.1742 49.4837 31.1742 49.0522C31.1742 48.6208 30.8244 48.271 30.3929 48.271Z" fill="black"/>
<path d="M27.3893 45.1387C27.3893 44.7072 27.0395 44.3574 26.608 44.3574H19.7812C19.3498 44.3574 19 44.7072 19 45.1387C19 45.5702 19.3498 45.9199 19.7812 45.9199H26.608C27.0395 45.9199 27.3893 45.5702 27.3893 45.1387Z" fill="black"/>
<path d="M58.0659 48.1743C57.9338 43.7452 54.2897 40.1829 49.8292 40.1829H45.8652L43.6102 26.6411C43.492 25.8268 43.0592 25.1143 42.3905 24.6339C41.7192 24.1517 40.902 23.9694 40.0895 24.1205C38.4331 24.4285 37.9773 24.4945 37.853 24.5063C37.6229 24.5284 37.4143 24.6512 37.2834 24.8418C37.1526 25.0323 37.1128 25.2711 37.1749 25.4938L37.3691 26.1902C35.95 26.0203 34.6506 25.2478 33.8256 24.0389L33.3483 23.3405C33.2227 23.1567 33.0247 23.0352 32.804 23.0066C32.5834 22.9777 32.3609 23.0447 32.1924 23.1902L28.4566 26.4188C28.038 26.7331 27.6335 27.1427 27.254 27.6366C27.2538 27.6369 27.2536 27.6372 27.2534 27.6374C26.1936 29.0136 25.2767 31.0756 24.7495 33.2432C24.1712 33.297 23.6121 33.5651 23.2042 34.0377L22.2996 35.0859C21.8929 35.5572 21.6945 36.1586 21.7411 36.7794C21.7877 37.4002 22.0735 37.9652 22.546 38.3706L37.9343 51.5731C38.1952 51.7925 38.4671 51.9965 38.7486 52.1845H33.9248C33.4933 52.1845 33.1435 52.5343 33.1435 52.9658C33.1435 53.3973 33.4933 53.747 33.9248 53.747H56.6743C57.9567 53.747 59.0001 52.7037 59.0001 51.4213V50.0367C59.0001 49.2757 58.6327 48.5988 58.0659 48.1743ZM42.9162 31.9855H40.6063L40.0313 29.9227H42.5727L42.9162 31.9855ZM43.1763 33.548L43.5369 35.7133H41.6452L41.0417 33.548H43.1763ZM43.7971 37.2758L44.3499 40.5958C44.1092 40.6668 43.8505 40.6636 43.598 40.582C43.1776 40.4461 42.8706 40.1234 42.7538 39.6906L42.0807 37.2758H43.7971ZM40.3752 25.6566C40.765 25.5841 41.1569 25.6716 41.4788 25.9029C41.8009 26.1342 42.009 26.4779 42.0647 26.8706C42.0656 26.8768 42.0665 26.883 42.0676 26.8891L42.3125 28.3602H39.5959L38.916 25.9207C39.2557 25.8618 39.7245 25.7777 40.3752 25.6566ZM29.457 27.6192L32.552 24.9445C33.7567 26.6929 35.7208 27.7388 37.814 27.7866L37.9738 28.3601H37.9275C37.496 28.3601 37.1463 28.7098 37.1463 29.1413C37.1463 29.5728 37.496 29.9226 37.9275 29.9226H38.4093L38.9842 31.9854H38.4765C38.045 31.9854 37.6952 32.3352 37.6952 32.7666C37.6952 33.1981 38.045 33.5479 38.4765 33.5479H39.4198L40.0233 35.7132H39.1015C38.67 35.7132 38.3202 36.063 38.3202 36.4945C38.3202 36.9259 38.67 37.2757 39.1015 37.2757H40.4588L41.247 40.1036C41.4986 41.0367 42.1978 41.7713 43.1174 42.0686C43.2467 42.1104 43.3774 42.1426 43.5088 42.1654L42.7476 43.2641C42.5019 43.6188 42.5903 44.1056 42.9449 44.3513C43.0806 44.4452 43.2356 44.4904 43.3891 44.4904C43.6367 44.4904 43.8802 44.373 44.032 44.154L45.7006 41.7453H49.8292C53.2708 41.7453 56.1126 44.3623 56.4693 47.7109H43.896C43.1428 47.7109 42.4098 47.4454 41.8312 46.9632L30.7242 37.4341C32.0424 36.3813 32.8282 34.7481 32.8282 32.9618C32.8282 31.5916 32.3338 30.2681 31.4359 29.2348C30.8567 28.5684 30.1351 28.0506 29.3335 27.7154C29.3594 27.695 29.3853 27.6752 29.4113 27.6559C29.427 27.6443 29.4423 27.632 29.457 27.6192ZM28.2106 28.9795C29.981 29.4556 31.2657 31.0925 31.2657 32.9618C31.2657 34.3722 30.6025 35.6467 29.5081 36.3907L26.4793 33.7922C26.4099 33.7327 26.3379 33.678 26.2638 33.628C26.691 31.8595 27.3935 30.1832 28.2106 28.9795ZM57.4376 51.4213C57.4376 51.8421 57.0952 52.1845 56.6743 52.1845H43.896C42.0856 52.1845 40.3256 51.5427 38.946 50.3823L23.5634 37.1848C23.4083 37.0517 23.3145 36.8663 23.2992 36.6626C23.2839 36.4588 23.3491 36.2614 23.4825 36.1068L24.3871 35.0586C24.5377 34.8841 24.751 34.7945 24.9656 34.7945C25.1416 34.7945 25.3184 34.8548 25.462 34.978L40.8178 48.1526C40.8203 48.1548 40.8229 48.157 40.8255 48.1591C41.6852 48.8777 42.7756 49.2734 43.896 49.2734H56.6743C57.0952 49.2734 57.4376 49.6159 57.4376 50.0367V51.4213Z" fill="black"/>
</svg>
